X:2177
T:Gyn ennym (No title) 
C:Traditional
O:Isle of Man
C:F Stowell 
Z:Clague collection
B:Kiaull Vannin #177 
M:4/4 
L:1/8 
Q:100 
K:D 
f>e|d3 B A3 F|A3 B A3 c|d3 c f2 e2|!fine!d6:|
d2|de fg a2 f2|a2 f>e d2 A2|d2 d2 de fd| Bc!D.C.! dB !fine!A2|| 

